icons/notification-alert-a.svg

<svg width="24" height="24" viewBox="0 0 24 24" fill="none" xmlns="http://www.w3.org/2000/svg">
<path fill-rule="evenodd" clip-rule="evenodd" d="M12.0499 3.65002C8.5641 3.65002 5.69989 6.51424 5.69989 10V13.6C5.69989 13.8873 5.77099 14.1916 5.87297 14.6C5.95489 14.8949 5.84779 15.2126 5.60351 15.3975C5.56366 15.4278 5.52043 15.4543 5.47422 15.4764C5.37511 15.526 5.29819 15.5649 5.23459 15.6012C5.20302 15.6192 5.18257 15.6323 5.17047 15.6407L5.16941 15.6414C4.94793 15.8705 4.79999 16.2561 4.79999 16.7C4.79999 17.4858 5.4642 18.15 6.24999 18.15H17.75C18.2011 18.15 18.5921 17.9972 18.8197 17.7697C19.0472 17.5422 19.2 17.1512 19.2 16.7C19.2 16.171 18.9462 15.7243 18.4903 15.4584C18.3465 15.3799 18.2348 15.2574 18.1683 15.113C18.1178 15.0032 18.0935 14.8807 18.1012 14.7552C18.1042 14.7043 18.1124 14.6534 18.1261 14.6032C18.1463 14.5228 18.1648 14.4511 18.1816 14.386L18.1816 14.3859C18.2585 14.0889 18.3 13.9285 18.3 13.7V10.1C18.3 9.27604 18.1423 8.46165 17.8357 7.7353C17.5865 7.80992 17.3228 7.85003 17.05 7.85003C15.4112 7.85003 14.3 6.58922 14.3 5.10003C14.3 4.76252 14.3614 4.43884 14.4736 4.1396C13.7325 3.81634 12.8962 3.65002 12.0499 3.65002ZM19.7029 14.4888C19.7563 14.2547 19.8 13.9928 19.8 13.7V10.1C19.8 9.00757 19.5745 7.90383 19.1125 6.91541C19.54 6.43043 19.8 5.79451 19.8 5.10003C19.8 3.58582 18.5642 2.35003 17.05 2.35003C16.4266 2.35003 15.8503 2.55951 15.3881 2.91165C14.3612 2.39962 13.1993 2.15002 12.0499 2.15002C7.73568 2.15002 4.19989 5.68581 4.19989 10V13.6C4.19989 13.8859 4.23996 14.1662 4.29203 14.4248C4.23406 14.4665 4.17453 14.5148 4.11966 14.5697C3.54718 15.1422 3.29999 15.9512 3.29999 16.7C3.29999 18.3142 4.63577 19.65 6.24999 19.65H8.99846C9.33509 20.9079 10.4943 21.85 11.85 21.85C13.2056 21.85 14.3648 20.9079 14.7015 19.65H17.75C18.4988 19.65 19.3078 19.4028 19.8803 18.8304C20.4528 18.2579 20.7 17.4489 20.7 16.7C20.7 15.8323 20.3412 15.0415 19.7029 14.4888ZM13.0836 19.65H10.6163C10.8745 20.0662 11.3363 20.35 11.85 20.35C12.3637 20.35 12.8254 20.0662 13.0836 19.65ZM17.9322 5.98215C17.8746 5.99968 17.8181 6.0245 17.7641 6.05691C17.6813 6.10659 17.6115 6.16972 17.5559 6.24184C17.4009 6.31131 17.2296 6.35003 17.05 6.35003C16.2888 6.35003 15.8 5.81084 15.8 5.10003C15.8 4.41424 16.3642 3.85003 17.05 3.85003C17.7358 3.85003 18.3 4.41424 18.3 5.10003C18.3 5.4429 18.159 5.75537 17.9322 5.98215Z" fill="black"/>
</svg>

<svg xmlns="http://www.w3.org/2000/svg" fill="none" viewBox="0 0 24 24">
  <path fill="#000" fill-rule="evenodd" d="M12.05 3.65C8.564 3.65 5.7 6.514 5.7 10v3.6c0 .287.071.592.173 1a.75.75 0 0 1-.399.876c-.099.05-.176.089-.24.125a.885.885 0 0 0-.064.04c-.222.23-.37.615-.37 1.059 0 .786.664 1.45 1.45 1.45h11.5c.451 0 .842-.153 1.07-.38.227-.228.38-.619.38-1.07 0-.529-.254-.976-.71-1.242a.751.751 0 0 1-.364-.855l.056-.217c.077-.297.118-.457.118-.686v-3.6a6.13 6.13 0 0 0-.464-2.365c-.25.075-.513.115-.786.115-1.639 0-2.75-1.26-2.75-2.75 0-.337.061-.661.174-.96a6.098 6.098 0 0 0-2.424-.49Zm7.653 10.839c.053-.234.097-.496.097-.789v-3.6a7.56 7.56 0 0 0-.688-3.185c.428-.485.688-1.12.688-1.815a2.756 2.756 0 0 0-2.75-2.75c-.623 0-1.2.21-1.662.562a7.52 7.52 0 0 0-3.338-.762C7.736 2.15 4.2 5.686 4.2 10v3.6c0 .286.04.566.092.825-.058.041-.117.09-.172.145-.573.572-.82 1.381-.82 2.13a2.97 2.97 0 0 0 2.95 2.95h2.748c.337 1.258 1.496 2.2 2.852 2.2 1.356 0 2.515-.942 2.851-2.2h3.049c.749 0 1.558-.247 2.13-.82.573-.572.82-1.381.82-2.13a2.89 2.89 0 0 0-.997-2.211Zm-6.62 5.161h-2.467c.258.416.72.7 1.234.7s.975-.284 1.234-.7Zm4.85-13.668a.752.752 0 0 0-.377.26c-.155.07-.326.108-.506.108-.761 0-1.25-.54-1.25-1.25 0-.686.564-1.25 1.25-1.25s1.25.564 1.25 1.25c0 .343-.141.655-.368.882Z" clip-rule="evenodd"/>
</svg>
